Numix-Light-GalliumOS/22/status/spotify-indicator.svg

<?xml version="1.0" encoding="UTF-8" standalone="no"?>
<svg
   xmlns:dc="http://purl.org/dc/elements/1.1/"
   xmlns:cc="http://creativecommons.org/ns#"
   xmlns:rdf="http://www.w3.org/1999/02/22-rdf-syntax-ns#"
   xmlns:svg="http://www.w3.org/2000/svg"
   xmlns="http://www.w3.org/2000/svg"
   xmlns:sodipodi="http://sodipodi.sourceforge.net/DTD/sodipodi-0.dtd"
   xmlns:inkscape="http://www.inkscape.org/namespaces/inkscape"
   width="22"
   viewBox="0 0 6.208889 6.208889"
   height="22"
   id="svg2"
   version="1.1"
   inkscape:version="0.91 r"
   sodipodi:docname="spotify-indicator.svg">
  <metadata
     id="metadata53">
    <rdf:RDF>
      <cc:Work
         rdf:about="">
        <dc:format>image/svg+xml</dc:format>
        <dc:type
           rdf:resource="http://purl.org/dc/dcmitype/StillImage" />
      </cc:Work>
    </rdf:RDF>
  </metadata>
  <sodipodi:namedview
     pagecolor="#ffffff"
     bordercolor="#666666"
     borderopacity="1"
     objecttolerance="10"
     gridtolerance="10"
     guidetolerance="10"
     inkscape:pageopacity="0"
     inkscape:pageshadow="2"
     inkscape:window-width="1280"
     inkscape:window-height="998"
     id="namedview51"
     showgrid="false"
     inkscape:zoom="19.685853"
     inkscape:cx="7.9298183"
     inkscape:cy="15.499306"
     inkscape:window-x="0"
     inkscape:window-y="0"
     inkscape:window-maximized="1"
     inkscape:current-layer="svg2" />
  <defs
     id="defs4" />
  <path
     inkscape:connector-curvature="0"
     style="fill:#353535;fill-opacity:1;fill-rule:evenodd"
     d="m 3.1044445,0.84666672 c -1.2508089,0 -2.25777782,1.00696888 -2.25777782,2.25777778 0,1.2508089 1.00696892,2.2577778 2.25777782,2.2577778 1.2508089,0 2.2577778,-1.0069689 2.2577778,-2.2577778 0,-1.2508089 -1.0069689,-2.25777778 -2.2577778,-2.25777778 z M 2.5047223,2.2313195 c 0.6700263,-0.019868 1.4709733,0.1293469 2.0108334,0.4938889 0.086324,0.058547 0.1110911,0.1780419 0.052917,0.2645833 C 4.5103089,3.0761396 4.3986744,3.1008484 4.3127084,3.0427084 3.6870138,2.620275 2.6134281,2.5289733 1.9843751,2.6811112 1.8828336,2.7054396 1.7792271,2.6411459 1.7550694,2.5400001 1.7305161,2.4390225 1.7950231,2.3438643 1.8961806,2.3195139 2.0768766,2.2758615 2.2813802,2.2379422 2.5047223,2.2313195 z m 0.044097,0.7055556 c 0.5950616,-0.01093 1.2181705,0.1545437 1.666875,0.4674305 0.07105,0.049764 0.084465,0.1405857 0.035278,0.2116667 C 4.2010162,3.6870082 4.1101945,3.7180679 4.0393056,3.668889 3.5184267,3.3049256 2.6874051,3.1506014 2.0372917,3.3072917 1.9529173,3.3278042 1.8725994,3.2770141 1.8520834,3.192639 1.8317619,3.108276 1.8825752,3.0275706 1.9667362,3.0074306 2.1525055,2.9626287 2.3504657,2.9405152 2.5488195,2.9368751 z m 0.017639,0.6526389 c 0.5347194,-0.00651 0.9924263,0.130819 1.3758334,0.396875 0.057224,0.039142 0.065602,0.1103469 0.026458,0.1675694 -0.039706,0.056995 -0.110944,0.074769 -0.1675691,0.035278 C 3.3458628,3.8733649 2.7462641,3.770187 2.0372917,3.8893751 1.9690524,3.9006188 1.9074206,3.8519716 1.8961806,3.7835418 1.8847436,3.7152917 1.9335719,3.6538496 2.0020139,3.6424306 2.1959358,3.6097527 2.3882186,3.591684 2.5664584,3.589514 z"
     id="rect31" />
</svg>

<svg xmlns="http://www.w3.org/2000/svg" width="22" viewBox="0 0 6.208889 6.208889" height="22">
 <path d="m 3.104 0.847 c -1.251 0 -2.258 1.01 -2.258 2.258 0 1.251 1.01 2.258 2.258 2.258 1.251 0 2.258 -1.01 2.258 -2.258 0 -1.251 -1.01 -2.258 -2.258 -2.258 z m -0.6 1.385 c 0.67 -0.02 1.471 0.129 2.01 0.494 0.086 0.059 0.111 0.178 0.053 0.265 c -0.058 0.086 -0.17 0.111 -0.256 0.053 -0.626 -0.422 -1.699 -0.514 -2.328 -0.362 -0.102 0.024 -0.205 -0.04 -0.229 -0.141 -0.025 -0.101 0.04 -0.196 0.141 -0.22 0.181 -0.044 0.385 -0.082 0.609 -0.088 z m 0.044 0.706 c 0.595 -0.011 1.218 0.155 1.667 0.467 0.071 0.05 0.084 0.141 0.035 0.212 c -0.05 0.071 -0.141 0.102 -0.212 0.053 -0.521 -0.364 -1.352 -0.518 -2 -0.362 -0.084 0.021 -0.165 -0.03 -0.185 -0.115 -0.02 -0.084 0.03 -0.165 0.115 -0.185 0.186 -0.045 0.384 -0.067 0.582 -0.071 z m 0.018 0.653 c 0.535 -0.007 0.992 0.131 1.376 0.397 0.057 0.039 0.066 0.11 0.026 0.168 -0.04 0.057 -0.111 0.075 -0.168 0.035 c -0.455 -0.316 -1.055 -0.419 -1.764 -0.3 -0.068 0.011 -0.13 -0.037 -0.141 -0.106 -0.011 -0.068 0.037 -0.13 0.106 -0.141 0.194 -0.033 0.386 -0.051 0.564 -0.053 z" style="fill:#353535;fill-opacity:1;fill-rule:evenodd"/>
</svg>
